X:1
T:[ID 11-19a]
T:[ID 11-19a]
T:Bezeichnung standardisiert: Menuett Menuet
T:Urheber unbekannt Datum in der hier transkribierten schriftlichen Quelle: vermutlich um 1800
C:Urheber unbekannt
C:Datum in der hier transkribierten schriftlichen Quelle: vermutlich um 1800
L:1/8
M:3/4
K:G
V:1 treble nm="2do"
V:1
 B,4 (3EDC | B,2 A2 G2 | F4 (3AGF | G2 c2 B2 | B3 B g2 | B3 B B2 | B2 A2 G2 | F6 :: D2 D2 BA | %9
 G3 A B2 | A2 D2 AG | F3 G A2 | B,4 (3EDC | B,2 A2 G2 | (3cBA G2 C2 | B4 :|[M:3/4]"^Trio" DC | %17
 B,3 C D2 | B,4 D2 | C3 DEC | D4 DC | B,3 C D2 | B,4 B2 | (3cBA G2 C2 | B,4 :: GA | B3 c B2 | %27
 B2 G2 A2 | B2 G2 A2 | B2 G2 A2 | A3 B A2 | A2 F2 A2 | DC C2 A,2 | B,4 :| %34

